X: 269
%
T: Keep the Country Bonnie Lassie
C:
O:Scotland
B:Keith Norman MacDonald : "The Skye collection of the best reels & strathspeys extant" : 1887
Z:Ralph Palmer
R:Reel
M:C
L:1/8
K:A
!mf!f | eAcA Bcdf | eAcA eAcA | dfce Bcdf | ecac {/f}e2 e :|
g | (a/2g/2f/2e/2) (ce) Bcdf | (a/2g/2f/2e/2) ce aece | aece Bcdf | ecac {/f}e2 (eg) |
(a/2g/2f/2e/2) (ce) Bcdf | (a/2g/2f/2e/2) (ce) (a/2g/2f/2e/2) (ce) | dfce Bcdf | eaca {/f}e2 e |]


